src/assets/rt_aud_rotten.svg

<svg xmlns="http://www.w3.org/2000/svg" viewBox="0 0 560 560">
  <g fill="none" transform="translate(33 140)">
    <path fill="#FFF" d="M43.8020066,267.3152 L281.745403,290.797105 C286.539148,305.7344 292.894623,320.31421 302.004138,331.0528 L71.7380852,300.927619 C61.4905377,294.175695 50.8770689,281.050362 43.8020066,267.3152 Z M266.684852,192.017143 C267.285384,212.923048 270.116459,239.981562 275.03101,263.034133 L33.8766098,243.950705 C26.3585902,221.21181 24.03,207.991848 22.1723803,189.066133 L266.684852,192.017143 Z M275.03101,89.3083429 C270.116459,112.360914 267.285384,139.419429 266.684852,160.325333 L22.1723803,163.276343 C24.03,144.350629 26.3585902,131.130667 33.8766098,108.391771 L275.03101,89.3083429 Z M302.004138,21.2896762 C292.894623,32.030019 286.539148,46.6080762 281.745403,61.5471238 L43.8020066,85.0272762 C50.8770689,71.2921143 61.4905377,58.1685333 71.7380852,51.4148571 L302.004138,21.2896762 Z"/>
    <path fill="#00641E" d="M303.565869,264.667352 C306.720846,256.846476 317.903331,252.081752 325.93259,252.63901 C334.515108,253.234819 343.631626,262.264838 345.224872,271.145905 C345.520761,270.823467 345.830656,270.518552 346.145803,270.218895 C348.901593,267.583314 352.35421,265.834438 356.132479,265.352533 C355.554708,262.790552 355.416393,260.048076 355.812079,257.233752 C357.207482,247.3328 365.145698,239.907962 374.234203,239.981562 C380.099449,240.028876 385.245108,243.032457 388.597928,247.646476 C388.897318,247.271467 389.228223,246.928 389.550374,246.577524 C393.384669,226.586362 395.814807,203.999924 396.368066,180.030857 C398.267705,97.6111238 377.375174,30.2776381 349.70522,29.6397714 C322.033515,29.0001524 298.061292,95.2962286 296.161652,177.715962 C296.161652,177.715962 294.696216,207.778057 303.565869,264.667352"/>
    <path fill="#FFD700" d="M490.910577,354.797562 C492.545843,352.0656 493.45977,348.7904 493.396741,345.310171 C493.927239,334.065143 486.214879,323.871543 475.484105,325.000076 C475.794,323.713829 475.997095,322.376762 476.075882,320.997638 C476.718433,309.733333 468.957049,300.025143 458.739266,299.315429 C458.515161,299.30141 458.294557,299.2944 458.072203,299.28739 C459.134951,296.492343 459.661948,293.371352 459.47461,290.06461 C458.945862,280.692876 452.488839,272.796648 444.088407,271.242286 C441.054236,270.681524 438.111108,270.960152 435.416597,271.894171 C432.870905,265.617143 427.525652,260.961067 421.023108,259.977981 C420.508367,249.786133 413.153174,241.397486 403.68299,240.740343 C397.728452,240.326781 392.257141,243.064 388.597928,247.646476 C385.245108,243.032457 380.099449,240.030629 374.234203,239.983314 C365.145698,239.907962 357.207482,247.3328 355.812079,257.235505 C355.416393,260.048076 355.554708,262.790552 356.132479,265.354286 C352.35421,265.834438 348.901593,267.585067 346.145803,270.218895 C345.830656,270.518552 345.520761,270.823467 345.224872,271.145905 C343.631626,262.264838 334.515108,253.236571 325.93259,252.63901 C317.903331,252.081752 306.575528,256.963886 303.565869,264.667352 C304.885987,278.101105 313.275915,314.72061 343.621121,347.570743 L343.890748,347.590019 C346.816367,350.239619 350.636656,351.699352 354.709062,351.33661 C357.233744,351.110552 359.558833,350.206324 361.56177,348.811429 L362.050249,348.844724 C364.720249,350.700495 367.929502,351.671314 371.320839,351.369905 C372.616446,351.254248 373.852525,350.942324 375.027325,350.497219 C377.933685,356.51139 384.41522,360.398171 391.649607,359.760305 C397.25223,359.266133 402.014459,356.164419 404.81402,351.799238 L405.720944,351.862324 C408.517003,354.636343 412.233993,356.252038 416.24337,356.131124 C419.557672,361.149943 425.645272,364.237638 432.363167,363.647086 C434.893102,363.424533 437.254957,362.692038 439.361193,361.582781 C442.875089,365.90941 448.642289,368.481905 454.969751,367.924648 C461.22543,367.376152 466.509403,363.904686 469.384249,359.104914 C472.208321,361.374248 475.746728,362.592152 479.503987,362.257448 C483.149193,361.931505 486.38821,360.208914 488.821849,357.603124 L489.228039,357.631162 C489.781298,356.828571 490.25402,356.006705 490.693475,355.177829 C490.70398,355.162057 490.712734,355.144533 490.721489,355.128762 C490.781016,355.018362 490.854551,354.909714 490.910577,354.797562"/>
    <path fill="#04A53C" d="M281.745403,61.5471238 L43.8020066,85.0272762 C50.8770689,71.2921143 61.4905377,58.1685333 71.7380852,51.4148571 L302.004138,21.2896762 C292.894623,32.030019 286.539148,46.6080762 281.745403,61.5471238 Z M302.004138,331.0528 L71.7380852,300.927619 C61.4905377,294.175695 50.8770689,281.050362 43.8020066,267.316952 L281.745403,290.797105 C286.539148,305.7344 292.894623,320.31421 302.004138,331.0528 Z M33.8766098,243.950705 C26.3585902,221.21181 24.03,207.9936 22.1723803,189.066133 L266.684852,192.017143 C267.285384,212.923048 270.116459,239.981562 275.03101,263.034133 L33.8766098,243.950705 Z M33.8766098,108.391771 L275.03101,89.3083429 C270.116459,112.360914 267.285384,139.419429 266.684852,160.327086 L22.1723803,163.276343 C24.03,144.350629 26.3585902,131.130667 33.8766098,108.391771 Z M378.597246,25.7126857 C363.342354,7.93478095 352.390977,-0.411809524 343.010085,0.672914286 C341.261016,0.895466667 76.1168852,37.8952381 76.1168852,37.8952381 C34.0429377,42.1780571 0.416695082,103.32739 0,176.172114 C0.416695082,249.015086 34.0429377,310.164419 76.1168852,314.44899 C76.1168852,314.44899 341.758249,351.583695 343.010085,351.669562 C345.228374,351.655543 347.418649,351.357638 349.57741,350.803886 C347.476426,350.178286 345.538269,349.083048 343.890748,347.590019 L343.621121,347.570743 C313.275915,314.722362 304.885987,278.101105 303.565869,264.667352 C303.56937,264.656838 303.576374,264.648076 303.579875,264.637562 C303.576374,264.648076 303.56937,264.656838 303.565869,264.667352 C294.696216,207.778057 296.161652,177.715962 296.161652,177.715962 C298.061292,95.2962286 322.033515,29.0001524 349.70522,29.638019 C377.375174,30.2776381 398.267705,97.6111238 396.368066,180.030857 C395.814807,203.999924 393.384669,226.586362 389.550374,246.577524 C393.489718,242.226362 398.773692,240.393371 403.68299,240.740343 C404.586413,240.805181 405.465325,240.957638 406.326728,241.155657 C423.131095,149.125867 405.514348,59.262019 378.597246,25.7126857 Z"/>
  </g>
</svg>

<svg viewBox="0 0 560 560" xmlns="http://www.w3.org/2000/svg"><g transform="translate(33 140)"><path d="m43.802 267.32l237.94 23.482c4.7937 14.937 11.149 29.517 20.259 40.256l-230.27-30.125c-10.248-6.7519-20.861-19.877-27.936-33.612zm222.88-75.298c0.60053 20.906 3.4316 47.964 8.3462 71.017l-241.15-19.083c-7.518-22.739-9.8466-35.959-11.704-54.885l244.51 2.951zm8.3462-102.71c-4.9146 23.053-7.7456 50.111-8.3462 71.017l-244.51 2.951c1.8576-18.926 4.1862-32.146 11.704-54.885l241.15-19.083zm26.973-68.019c-9.1095 10.74-15.465 25.318-20.259 40.257l-237.94 23.48c7.0751-13.735 17.689-26.859 27.936-33.612l230.27-30.125z" fill="#fff"/><path d="m303.57 264.67c3.155-7.8209 14.337-12.586 22.367-12.028 8.5825 0.59581 17.699 9.6258 19.292 18.507 0.29589-0.32244 0.60578-0.62735 0.92093-0.92701 2.7558-2.6356 6.2084-4.3845 9.9867-4.8664-0.57777-2.562-0.71609-5.3045-0.3204-8.1188 1.3954-9.901 9.3336-17.326 18.422-17.252 5.8652 0.047314 11.011 3.0509 14.364 7.6649 0.29939-0.37501 0.6303-0.71848 0.95245-1.069 3.8343-19.991 6.2644-42.578 6.8177-66.547 1.8996-82.42-18.993-149.75-46.663-150.39-27.672-0.63962-51.644 65.656-53.544 148.08 0 0-1.4654 30.062 7.4042 86.951" fill="#00641E"/><path d="m490.91 354.8c1.6353-2.732 2.5492-6.0072 2.4862-9.4874 0.5305-11.245-7.1819-21.439-17.913-20.31 0.3099-1.2862 0.51299-2.6233 0.59178-4.0024 0.64255-11.264-7.1188-20.972-17.337-21.682-0.2241-0.014019-0.44471-0.021029-0.66706-0.028039 1.0627-2.795 1.5897-5.916 1.4024-9.2228-0.52875-9.3717-6.9858-17.268-15.386-18.822-3.0342-0.56076-5.9773-0.28213-8.6718 0.65188-2.5457-6.277-7.8909-10.933-14.393-11.916-0.51474-10.192-7.8699-18.58-17.34-19.238-5.9545-0.41356-11.426 2.3237-15.085 6.9061-3.3528-4.614-8.4985-7.6158-14.364-7.6632-9.0885-0.075352-17.027 7.3495-18.422 17.252-0.39569 2.8126-0.25737 5.555 0.3204 8.1188-3.7783 0.48015-7.2309 2.2308-9.9867 4.8646-0.31515 0.29966-0.62504 0.60457-0.92093 0.92701-1.5932-8.8811-10.71-17.909-19.292-18.507-8.0293-0.55726-19.357 4.3249-22.367 12.028 1.3201 13.434 9.71 50.053 40.055 82.903l0.26963 0.019276c2.9256 2.6496 6.7459 4.1093 10.818 3.7466 2.5247-0.22606 4.8498-1.1303 6.8527-2.5252l0.48848 0.033295c2.67 1.8558 5.8793 2.8266 9.2706 2.5252 1.2956-0.11566 2.5317-0.42758 3.7065-0.87269 2.9064 6.0142 9.3879 9.901 16.622 9.2631 5.6026-0.49417 10.365-3.5959 13.164-7.9611l0.90692 0.063086c2.7961 2.774 6.513 4.3897 10.522 4.2688 3.3143 5.0188 9.4019 8.1065 16.12 7.516 2.5299-0.22255 4.8918-0.95505 6.998-2.0643 3.5139 4.3266 9.2811 6.8991 15.609 6.3419 6.2557-0.5485 11.54-4.02 14.414-8.8197 2.8241 2.2693 6.3625 3.4872 10.12 3.1525 3.6452-0.32594 6.8842-2.0485 9.3179-4.6543l0.40619 0.028038c0.55326-0.80259 1.026-1.6245 1.4654-2.4533 0.010505-0.015772 0.019259-0.033296 0.028014-0.049067 0.059527-0.1104 0.13306-0.21905 0.18909-0.3312" fill="#FFD700"/><path d="m281.75 61.547l-237.94 23.48c7.0751-13.735 17.689-26.859 27.936-33.612l230.27-30.125c-9.1095 10.74-15.465 25.318-20.259 40.257zm20.259 269.51l-230.27-30.125c-10.248-6.7519-20.861-19.877-27.936-33.611l237.94 23.48c4.7937 14.937 11.149 29.517 20.259 40.256zm-268.13-87.102c-7.518-22.739-9.8466-35.957-11.704-54.885l244.51 2.951c0.60053 20.906 3.4316 47.964 8.3462 71.017l-241.15-19.083zm0-135.56l241.15-19.083c-4.9146 23.053-7.7456 50.111-8.3462 71.019l-244.51 2.9493c1.8576-18.926 4.1862-32.146 11.704-54.885zm344.72-82.679c-15.255-17.778-26.206-26.124-35.587-25.04-1.7491 0.22255-266.89 37.222-266.89 37.222-42.074 4.2828-75.7 65.432-76.117 138.28 0.4167 72.843 34.043 133.99 76.117 138.28 0 0 265.64 37.135 266.89 37.221 2.2183-0.014019 4.4086-0.31192 6.5673-0.86568-2.101-0.6256-4.0391-1.7208-5.6867-3.2139l-0.26963-0.019276c-30.345-32.848-38.735-69.47-40.055-82.903 0.003501-0.010514 0.010505-0.019276 0.014006-0.02979-0.003501 0.010514-0.010505 0.019276-0.014006 0.02979-8.8697-56.889-7.4042-86.951-7.4042-86.951 1.8996-82.42 25.872-148.72 53.544-148.08 27.67 0.63962 48.562 67.973 46.663 150.39-0.55326 23.969-2.9834 46.556-6.8177 66.547 3.9393-4.3512 9.2233-6.1842 14.133-5.8372 0.90342 0.064838 1.7823 0.2173 2.6437 0.41531 16.804-92.03-0.81238-181.89-27.729-215.44z" fill="#04A53C"/></g></svg>
